X:10287
T:Marcha Celta (MQ 058)
R:Marcha
C:Tradicional
S:Msica Tradicional Asturiana, (C) Tello & Tito. Asturies, 2001.
S:http://pagina.de/MusTradAst <telloytito@asturies.org>
N:Conocida con los nombres de Cltica o Marcha Celta, es segn algunos musiclogos gallegos el himno del antiguo reino de Galicia.
N:La aprend de los gaiteros del Centro Asturianu de Madrid, la tocaban en la banda de gaitas que tenan en la poca en que yo formaba parte de la agrupacin de coros y danzas de dicho Centro.
N:A finales de los aos 70 la grab en un disco con el grupo "Nuberu" del que yo formaba parte entonces y araiz de eso tambin se hizo muy popular en toda la Regin.
N:Tambin la tocaba por aquellas fechas el grupo de gaitas los "Son de Arriba" de Cangas de Narcea.
A:Asturies
Z:Manolo Quirs 058
M:4/4
L:1/8
Q:1/4=120
K:C
C2 D2
|: E3 D/E/ FE/F/ G/F/E/F/|D4 B,2 C2|D3 C/D/ ED/E/ F/E/D/E/|C4 C2 D2|
E3 D/E/ FE/F/ G/F/E/F/|D4 B,2 C2|D3 C/D/ ED/E/ F/E/D/E/|C4 AG FE|
D2 D/C/D/E/ D2 D/C/D/E/|D3 E/F/ G>A F>G|E2 E/D/E/F/ EC/E/ DB,/D/|C4 E2 F2|
G3 F/G/ AG/A/ B/A/G/A/|F4 D2 E2|F3 E/F/ GF/G/ A/G/F/G/|E4  E2 F2|
G3 F/G/ AG/A/ B/A/G/A/|F4 D2 E2|F3 E/F/ GF/G/ A/G/F/G/|E4  cB AG|
F2 F/E/F/G/ F2 F/E/F/G/|F3 G/A/ Bc AB|G2 G/F/G/A/ GE/G/ FD/F/|E4 cB AG|
F2 F/E/F/G/ F2 F/E/F/G/|F3 G/A/ Bc AB|G2 G/F/G/A/ GE/G/ FD/F/|[1 E4 C2D2 :|[2 E8||
